dist/assets/img/main/deal/5.svg

<svg width="319" height="352" viewBox="0 0 319 352" fill="none" xmlns="http://www.w3.org/2000/svg">
<path d="M0.107129 175.795C0.107129 145.805 0.2011 116.313 0.0246855 86.8237C-0.00896847 81.1982 1.94289 77.6084 6.84182 74.7383C46.7478 51.3589 86.6955 28.0423 126.258 4.09085C134.827 -1.0974 141.109 -1.53958 149.961 3.85287C189.603 28.0041 229.741 51.3434 269.762 74.8697C274.37 77.5783 276.449 80.7816 276.413 86.4606C276.154 127.446 276.311 168.434 276.207 209.421C276.198 212.809 277.178 214.566 280.267 216.357C300.969 228.367 313.717 246 317.375 269.959C323.085 307.359 295.529 345.007 258.052 350.799C223.222 356.182 191.074 337.661 178.448 304.945C177.915 303.563 177.334 302.2 176.569 300.321C165.512 306.876 154.504 313.264 143.654 319.911C139.942 322.185 136.919 322.186 133.099 319.916C91.1996 295.021 49.251 270.208 7.17508 245.614C1.86685 242.512 -0.0874745 238.784 0.00298753 232.776C0.286389 213.953 0.107144 195.123 0.107129 175.795ZM203.625 74.6579C171.003 93.9827 138.38 113.307 105.127 133.006C115.787 139.333 125.536 145.301 135.514 150.858C137.109 151.747 140.085 151.479 141.807 150.575C147.675 147.494 153.257 143.872 158.967 140.487C187.784 123.4 216.566 106.253 245.522 89.4034C247.435 88.2902 251.288 88.5444 253.194 89.7772C257.812 92.763 256.648 97.5137 250.731 101.021C217.044 120.987 183.367 140.972 149.575 160.759C146.082 162.805 144.818 164.964 144.841 168.986C145.013 198.983 144.944 228.98 144.926 258.978C144.923 264.679 142.653 267.794 138.531 267.964C134.292 268.139 131.723 264.784 131.607 258.905C131.587 257.906 131.604 256.906 131.604 255.906C131.604 230.075 130.991 204.222 131.894 178.423C132.276 167.516 129.968 160.387 119.38 156.039C112.335 153.146 106.013 148.49 98.5819 144.166C98.5819 146.823 98.5819 148.46 98.5819 150.098C98.5819 161.93 98.622 173.763 98.5659 185.595C98.5345 192.216 93.5526 194.923 87.7705 191.505C74.4887 183.654 61.2654 175.702 47.931 167.942C44.5182 165.956 43.2068 163.428 43.2561 159.471C43.4411 144.641 43.3686 129.807 43.2699 114.976C43.2601 113.511 42.8675 111.314 41.8811 110.704C32.6402 104.986 23.2309 99.5399 13.597 93.8541C13.3795 95.0322 13.2187 95.497 13.2186 95.9618C13.2043 140.958 13.2488 185.954 13.1019 230.95C13.0914 234.182 14.8537 235.294 16.9871 236.552C44.7036 252.907 72.4267 269.249 100.146 285.599C110.388 291.64 120.624 297.692 131.606 304.179C131.606 298.044 131.529 292.767 131.63 287.492C131.717 282.906 134.966 278.948 138.351 279.04C141.707 279.131 144.892 283.248 144.925 287.649C144.965 292.898 144.934 298.146 144.934 304.183C155.186 298.114 164.665 292.503 173.975 286.992C169.664 240.552 210.674 197.965 262.785 209.378C262.921 208.917 263.181 208.452 263.181 207.986C263.215 168.157 263.256 128.328 263.133 88.4994C263.128 87.0634 261.832 85.0601 260.554 84.2887C249.197 77.4342 237.745 70.7327 226.203 64.1963C225.016 63.5245 222.77 63.6964 221.499 64.378C215.66 67.5085 209.993 70.9592 203.625 74.6579ZM158.506 86.6395C175.99 76.2977 193.474 65.9559 211.492 55.2979C202.567 50.0532 194.086 45.4903 186.092 40.1911C182.169 37.5906 179.423 38.2693 175.849 40.4206C160.655 49.5675 145.302 58.4496 130.073 67.5397C126.492 69.6769 123.832 68.9294 121.408 65.8514C118.852 62.6058 120.017 59.926 122.719 57.6192C124.344 56.231 126.145 55.0106 127.988 53.9188C141.295 46.0337 154.634 38.2006 168.523 30.0214C159.575 24.6749 151.104 19.8073 142.856 14.5876C139.614 12.536 137.133 12.6093 133.848 14.5757C108.675 29.6433 83.3929 44.5279 58.1401 59.462C45.4474 66.9683 32.7454 74.459 19.3433 82.3726C28.6142 87.8427 37.4005 92.7822 45.8989 98.1756C48.8211 100.03 50.8087 99.7004 53.5275 98.0697C70.1582 88.0944 86.8817 78.2738 103.577 68.4063C107.677 65.9831 112.019 66.4338 113.765 69.4453C115.527 72.4835 114.131 77.0594 110.449 79.271C102.775 83.8811 94.9857 88.2982 87.2705 92.8405C79.09 97.6567 70.9408 102.526 62.245 107.689C71.5108 113.205 80.1134 118.165 88.528 123.426C91.3297 125.178 93.4415 125.085 96.2299 123.424C116.736 111.216 137.332 99.1596 158.506 86.6395ZM210.846 231.9C179.057 255.195 178.504 302.523 209.737 326.746C239.121 349.534 282.862 339.368 299.132 305.862C310.945 281.536 305.237 254.536 287.654 237.402C266.433 216.723 236.219 214.785 210.846 231.9ZM69.5948 126.807C65.3509 124.387 61.1071 121.967 56.0638 119.092C56.0638 132.029 56.0376 144.08 56.1215 156.13C56.1272 156.949 56.7499 158.109 57.4394 158.527C66.7078 164.154 76.0391 169.677 86.1698 175.711C86.1698 162.531 86.2362 150.311 86.0525 138.096C86.0366 137.039 84.5509 135.718 83.4354 135.016C79.1033 132.291 74.6449 129.766 69.5948 126.807Z" fill="#1472C9"/>
<path d="M49.4928 241.257C48.9186 236.515 48.4439 232.127 48.2688 227.727C48.0975 223.423 48.1764 219.105 48.2474 214.795C48.3176 210.54 51.1442 207.166 54.6783 207.524C58.6701 207.927 60.8571 210.286 60.8188 214.531C60.7513 221.992 61.0684 229.469 60.6398 236.906C60.5098 239.162 58.9134 242.521 57.1604 243.184C55.165 243.938 52.2428 242.24 49.4928 241.257Z" fill="#1A76CB"/>
<path d="M37.2663 210.843C37.2661 215.481 37.3324 219.63 37.2483 223.776C37.1509 228.582 34.1937 232.362 30.6972 232.339C26.7749 232.313 24.2329 229.082 24.1972 223.912C24.1513 217.277 24.1437 210.64 24.1995 204.004C24.244 198.7 26.6076 195.736 30.6405 195.721C34.7175 195.707 37.0276 198.515 37.2501 203.884C37.3393 206.037 37.2657 208.196 37.2663 210.843Z" fill="#1271C9"/>
<path d="M223.613 252.172C211.967 261.832 208.586 274.215 211.708 288.022C214.86 301.963 223.939 311.198 238.188 313.946C262.366 318.61 281.798 302.229 281.11 277.914C280.787 266.476 275.304 257.477 266.271 250.49C261.578 246.861 262.264 240.842 267.586 239.222C269.312 238.698 271.992 239.232 273.477 240.319C287.914 250.884 295.452 265.319 294.045 283.118C292.471 303.021 281.745 317.518 263.057 324.625C233.884 335.72 203.247 317.501 198.248 286.867C193.674 258.838 216.917 231.187 244.615 231.586C248.67 231.645 251.698 233.002 252.071 237.171C252.432 241.191 250.132 243.549 245.931 244.044C237.994 244.98 230.237 246.527 223.613 252.172Z" fill="#1472C9"/>
<path d="M246.013 294.642C244.822 295.839 243.906 296.808 242.939 297.723C238.278 302.13 235.718 302.085 231.12 297.544C228.87 295.321 226.621 293.097 224.366 290.88C221.472 288.036 220.835 284.773 223.374 281.548C225.701 278.592 229.688 278.77 233.055 281.6C234.322 282.664 235.492 283.844 237.592 285.794C244.418 278.737 251.177 271.7 257.997 264.723C260.544 262.118 263.342 259.973 267.11 262.627C271.089 265.431 271.292 269.17 267.414 273.155C260.448 280.315 253.323 287.32 246.013 294.642Z" fill="#1472C9"/>
</svg>

<svg width="319" height="352" fill="none" xmlns="http://www.w3.org/2000/svg"><path d="M.107 175.795c0-29.99.094-59.482-.082-88.971-.034-5.626 1.918-9.216 6.817-12.086 39.906-23.38 79.853-46.696 119.416-70.647 8.569-5.188 14.851-5.63 23.703-.238 39.642 24.151 79.78 47.49 119.801 71.017 4.608 2.708 6.687 5.912 6.651 11.59-.259 40.986-.102 81.974-.206 122.961-.009 3.388.971 5.145 4.06 6.936 20.702 12.01 33.45 29.643 37.108 53.602 5.71 37.4-21.846 75.048-59.323 80.84-34.83 5.383-66.978-13.138-79.604-45.854-.533-1.382-1.114-2.745-1.879-4.624-11.057 6.555-22.065 12.943-32.915 19.59-3.712 2.274-6.735 2.275-10.555.005-41.9-24.895-83.848-49.708-125.924-74.302-5.308-3.102-7.262-6.83-7.172-12.838.283-18.823.104-37.653.104-56.981zM203.625 74.658l-98.498 58.348c10.66 6.327 20.409 12.295 30.387 17.852 1.595.889 4.571.621 6.293-.283 5.868-3.081 11.45-6.703 17.16-10.088 28.817-17.087 57.599-34.234 86.555-51.084 1.913-1.113 5.766-.859 7.672.374 4.618 2.986 3.454 7.737-2.463 11.244-33.687 19.966-67.364 39.951-101.156 59.738-3.493 2.046-4.757 4.205-4.734 8.227.172 29.997.103 59.994.085 89.992-.003 5.701-2.273 8.816-6.395 8.986-4.239.175-6.808-3.18-6.924-9.059-.02-.999-.003-1.999-.003-2.999 0-25.831-.613-51.684.29-77.483.382-10.907-1.926-18.036-12.514-22.384-7.045-2.893-13.367-7.549-20.798-11.873v5.932c0 11.832.04 23.665-.016 35.497-.032 6.621-5.013 9.328-10.796 5.91-13.281-7.851-26.505-15.803-39.839-23.563-3.413-1.986-4.724-4.514-4.675-8.471.185-14.83.113-29.664.014-44.495-.01-1.465-.403-3.662-1.389-4.272-9.24-5.718-18.65-11.164-28.284-16.85-.217 1.178-.378 1.643-.378 2.108-.015 44.996.03 89.992-.117 134.988-.01 3.232 1.752 4.344 3.885 5.602 27.717 16.355 55.44 32.697 83.159 49.047 10.242 6.041 20.478 12.093 31.46 18.58 0-6.135-.077-11.412.024-16.687.087-4.586 3.336-8.544 6.721-8.452 3.356.091 6.541 4.208 6.574 8.609.04 5.249.009 10.497.009 16.534l29.041-17.191c-4.311-46.44 36.699-89.027 88.81-77.614.136-.461.396-.926.396-1.392.034-39.829.075-79.658-.048-119.487-.005-1.436-1.301-3.439-2.579-4.21a1434.64 1434.64 0 00-34.351-20.093c-1.187-.671-3.433-.5-4.704.182-5.839 3.13-11.506 6.581-17.874 10.28zm-45.119 11.981l52.986-31.341c-8.925-5.245-17.406-9.808-25.4-15.107-3.923-2.6-6.669-1.922-10.243.23-15.194 9.147-30.547 18.029-45.776 27.119-3.581 2.137-6.241 1.39-8.665-1.689-2.556-3.245-1.391-5.925 1.311-8.232 1.625-1.388 3.426-2.608 5.269-3.7 13.307-7.885 26.646-15.718 40.535-23.898-8.948-5.346-17.419-10.214-25.667-15.433-3.242-2.052-5.723-1.979-9.008-.012-25.173 15.067-50.455 29.952-75.708 44.886-12.693 7.506-25.395 14.997-38.797 22.91 9.271 5.47 18.058 10.41 26.556 15.804 2.922 1.854 4.91 1.524 7.629-.106 16.63-9.976 33.354-19.796 50.049-29.664 4.1-2.423 8.442-1.972 10.188 1.04 1.762 3.038.366 7.613-3.316 9.825-7.674 4.61-15.463 9.027-23.178 13.57-8.181 4.816-16.33 9.685-25.026 14.848 9.266 5.516 17.868 10.476 26.283 15.737 2.802 1.752 4.913 1.659 7.702-.002 20.506-12.208 41.102-24.264 62.276-36.785zm52.34 145.261c-31.789 23.295-32.342 70.623-1.109 94.846 29.384 22.788 73.125 12.622 89.395-20.884 11.813-24.326 6.105-51.326-11.478-68.46-21.221-20.679-51.435-22.617-76.808-5.502zM69.595 126.807l-13.531-7.715c0 12.937-.026 24.988.057 37.038.006.819.629 1.979 1.318 2.397 9.269 5.627 18.6 11.15 28.73 17.184 0-13.18.067-25.4-.117-37.615-.015-1.057-1.501-2.378-2.617-3.08-4.332-2.725-8.79-5.25-13.84-8.209z" fill="#1472C9"/><path d="M49.493 241.257c-.574-4.742-1.05-9.13-1.224-13.53-.172-4.304-.093-8.622-.022-12.932.07-4.255 2.897-7.629 6.431-7.271 3.992.403 6.18 2.762 6.14 7.007-.067 7.461.25 14.938-.178 22.375-.13 2.256-1.727 5.615-3.48 6.278-1.995.754-4.917-.944-7.667-1.927z" fill="#1A76CB"/><path d="M37.266 210.843c0 4.638.066 8.787-.018 12.933-.097 4.806-3.054 8.586-6.55 8.563-3.923-.026-6.465-3.257-6.5-8.427-.047-6.635-.054-13.272.002-19.908.044-5.304 2.408-8.268 6.44-8.283 4.078-.014 6.388 2.794 6.61 8.163.09 2.153.016 4.312.016 6.959z" fill="#1271C9"/><path d="M223.613 252.172c-11.646 9.66-15.027 22.043-11.905 35.85 3.152 13.941 12.231 23.176 26.48 25.924 24.178 4.664 43.61-11.717 42.922-36.032-.323-11.438-5.806-20.437-14.839-27.424-4.693-3.629-4.007-9.648 1.315-11.268 1.726-.524 4.406.01 5.891 1.097 14.437 10.565 21.975 25 20.568 42.799-1.574 19.903-12.3 34.4-30.988 41.507-29.173 11.095-59.81-7.124-64.809-37.758-4.574-28.029 18.669-55.68 46.367-55.281 4.055.059 7.083 1.416 7.456 5.585.361 4.02-1.939 6.378-6.14 6.873-7.937.936-15.694 2.483-22.318 8.128z" fill="#1472C9"/><path d="M246.013 294.642c-1.191 1.197-2.107 2.166-3.074 3.081-4.661 4.407-7.221 4.362-11.819-.179-2.25-2.223-4.499-4.447-6.754-6.664-2.894-2.844-3.531-6.107-.992-9.332 2.327-2.956 6.314-2.778 9.681.052 1.267 1.064 2.437 2.244 4.537 4.194 6.826-7.057 13.585-14.094 20.405-21.071 2.547-2.605 5.345-4.75 9.113-2.096 3.979 2.804 4.182 6.543.304 10.528-6.966 7.16-14.091 14.165-21.401 21.487z" fill="#1472C9"/></svg>
